src/components/00-materials/images-raw/Car Hail.svg

<svg width="96" height="96" viewBox="0 0 96 96" fill="none" xmlns="http://www.w3.org/2000/svg">
<path d="M88.88 63.9V53.14C88.8818 51.9545 88.4689 50.8056 87.7128 49.8925C86.9567 48.9793 85.9051 48.3594 84.74 48.14L70.54 44.48L61.32 36.13C55.96 31.19 52.19 30.13 47.47 30.13H26.16C23.39 30.13 20.76 32.42 18.97 34.55L9.77999 45.46C9.45948 45.8096 9.08048 46.1006 8.66 46.32C8.19621 46.5784 7.80928 46.9552 7.53873 47.4119C7.26817 47.8687 7.12368 48.3891 7.12 48.92V63.92M28.36 69.4H61.27H28.36ZM26.59 64.1H63.02H26.59Z" stroke="#00008F" stroke-width="2" stroke-linecap="round" stroke-linejoin="round"/>
<path d="M19.86 77.89C24.5489 77.89 28.35 74.0889 28.35 69.4C28.35 64.7111 24.5489 60.91 19.86 60.91C15.1711 60.91 11.37 64.7111 11.37 69.4C11.37 74.0889 15.1711 77.89 19.86 77.89Z" stroke="#00008F" stroke-width="2" stroke-linecap="round" stroke-linejoin="round"/>
<path d="M19.86 72.59C21.6218 72.59 23.05 71.1618 23.05 69.4C23.05 67.6382 21.6218 66.21 19.86 66.21C18.0982 66.21 16.67 67.6382 16.67 69.4C16.67 71.1618 18.0982 72.59 19.86 72.59Z" stroke="#00008F" stroke-width="2" stroke-linecap="round" stroke-linejoin="round"/>
<path d="M69.77 77.89C74.4589 77.89 78.26 74.0889 78.26 69.4C78.26 64.7111 74.4589 60.91 69.77 60.91C65.0811 60.91 61.28 64.7111 61.28 69.4C61.28 74.0889 65.0811 77.89 69.77 77.89Z" stroke="#00008F" stroke-width="2" stroke-linecap="round" stroke-linejoin="round"/>
<path d="M69.77 72.59C71.5318 72.59 72.96 71.1618 72.96 69.4C72.96 67.6382 71.5318 66.21 69.77 66.21C68.0082 66.21 66.58 67.6382 66.58 69.4C66.58 71.1618 68.0082 72.59 69.77 72.59Z" stroke="#00008F" stroke-width="2" stroke-linecap="round" stroke-linejoin="round"/>
<path d="M7.12 53.48C13.06 53.48 14.51 46.05 9.12 46.05M78.26 69.4H88.35C89.0528 69.4 89.7269 69.1208 90.2238 68.6238C90.7208 68.1268 91 67.4528 91 66.75C91 66.0471 90.7208 65.3731 90.2238 64.8761C89.7269 64.3792 89.0528 64.1 88.35 64.1H76.4L78.26 69.4ZM11.37 69.4H7.65C6.94718 69.4 6.27314 69.1208 5.77617 68.6238C5.2792 68.1268 5 67.4528 5 66.75C5 66.0471 5.2792 65.3731 5.77617 64.8761C6.27314 64.3792 6.94718 64.1 7.65 64.1H13.23L11.37 69.4ZM19.86 46.05L27.86 37.19C28.3562 36.6362 28.9635 36.1932 29.6424 35.8899C30.3213 35.5867 31.0565 35.43 31.8 35.43H47.44C50.8729 35.423 54.1852 36.6959 56.73 39L64.46 46L19.86 46.05ZM64.46 46.05H19.86H64.46ZM41.1 64.1V35.43V64.1ZM47.47 51.35H45.35H47.47Z" stroke="#00008F" stroke-width="2" stroke-linecap="round" stroke-linejoin="round"/>
<path d="M69.92 26.29C71.5879 26.29 72.94 24.9379 72.94 23.27C72.94 21.6021 71.5879 20.25 69.92 20.25C68.2521 20.25 66.9 21.6021 66.9 23.27C66.9 24.9379 68.2521 26.29 69.92 26.29Z" stroke="#00008F" stroke-width="2" stroke-linecap="round" stroke-linejoin="round"/>
<path d="M82.52 23.41C83.9835 23.41 85.17 22.2235 85.17 20.76C85.17 19.2964 83.9835 18.11 82.52 18.11C81.0564 18.11 79.87 19.2964 79.87 20.76C79.87 22.2235 81.0564 23.41 82.52 23.41Z" stroke="#00008F" stroke-width="2" stroke-linecap="round" stroke-linejoin="round"/>
<path d="M85.53 36.63C87.1979 36.63 88.55 35.2779 88.55 33.61C88.55 31.9421 87.1979 30.59 85.53 30.59C83.8621 30.59 82.51 31.9421 82.51 33.61C82.51 35.2779 83.8621 36.63 85.53 36.63Z" stroke="#00008F" stroke-width="2" stroke-linecap="round" stroke-linejoin="round"/>
</svg>

<svg width="96" height="96" viewBox="0 0 96 96" fill="none" xmlns="http://www.w3.org/2000/svg"><path d="M88.88 63.9V53.14a5.08 5.08 0 00-4.14-5l-14.2-3.66-9.22-8.35c-5.36-4.94-9.13-6-13.85-6H26.16c-2.77 0-5.4 2.29-7.19 4.42L9.78 45.46c-.32.35-.7.64-1.12.86a3 3 0 00-1.54 2.6v15m21.24 5.48h32.91-32.91zm-1.77-5.3h36.43-36.43z" stroke="#00008F" stroke-width="2" stroke-linecap="round" stroke-linejoin="round"/><path d="M19.86 77.89a8.49 8.49 0 100-16.98 8.49 8.49 0 000 16.98z" stroke="#00008F" stroke-width="2" stroke-linecap="round" stroke-linejoin="round"/><path d="M19.86 72.59a3.19 3.19 0 100-6.38 3.19 3.19 0 000 6.38zM69.77 77.89a8.49 8.49 0 100-16.98 8.49 8.49 0 000 16.98z" stroke="#00008F" stroke-width="2" stroke-linecap="round" stroke-linejoin="round"/><path d="M69.77 72.59a3.19 3.19 0 100-6.38 3.19 3.19 0 000 6.38zM7.12 53.48c5.94 0 7.39-7.43 2-7.43M78.26 69.4h10.09a2.65 2.65 0 100-5.3H76.4l1.86 5.3zm-66.89 0H7.65a2.65 2.65 0 110-5.3h5.58l-1.86 5.3zm8.49-23.35l8-8.86a5.29 5.29 0 013.94-1.76h15.64A13.8 13.8 0 0156.73 39l7.73 7-44.6.05zm44.6 0h-44.6 44.6zM41.1 64.1V35.43 64.1zm6.37-12.75h-2.12 2.12zM69.92 26.29a3.02 3.02 0 100-6.04 3.02 3.02 0 000 6.04zM82.52 23.41a2.65 2.65 0 100-5.3 2.65 2.65 0 000 5.3zM85.53 36.63a3.02 3.02 0 100-6.04 3.02 3.02 0 000 6.04z" stroke="#00008F" stroke-width="2" stroke-linecap="round" stroke-linejoin="round"/></svg>
